outputs/icons/editor/type_round.svg

<svg xmlns="http://www.w3.org/2000/svg" width="1200" height="1200" fill="none"><g clip-path="url(#a)"><path fill="#000" d="M250 275c0 41.5 33.5 75 75 75h200v525c0 41.5 33.5 75 75 75s75-33.5 75-75V350h200c41.5 0 75-33.5 75-75s-33.5-75-75-75H325c-41.5 0-75 33.5-75 75"/></g><defs><clipPath id="a"><path fill="#fff" d="M0 0h1200v1200H0z"/></clipPath></defs></svg>

<svg width="1200" height="1200" viewBox="0 0 1200 1200" fill="none" xmlns="http://www.w3.org/2000/svg"><g clip-path="url(#clip0_238_236)"><path d="M250 275C250 316.5 283.5 350 325 350H525V875C525 916.5 558.5 950 600 950C641.5 950 675 916.5 675 875V350H875C916.5 350 950 316.5 950 275C950 233.5 916.5 200 875 200H325C283.5 200 250 233.5 250 275Z" fill="black"/></g><defs><clipPath id="clip0_238_236"><path width="24" fill="white" d="M0 0H1200V1200H0V0z"/></clipPath></defs></svg>
